X:1
T:My Wonderful Friend
T:My Wonderful Friend
T:Haldor Lillenas
T:Haldor Lillenas, 1919
T:Public Domain Courtesy of the Cyber Hymnal™
T:Public Domain Courtesy of the Cyber Hymnal™
C:Haldor Lillenas
Z:Public Domain
Z:Courtesy of the Cyber Hymnal™
%%score ( 1 2 ) ( 3 4 )
L:1/8
Q:1/4=85
M:6/8
K:G
V:1 treble 
V:2 treble 
V:3 bass 
V:4 bass 
V:1
 D | [GB]>[G^A][GB] [Gd]>[Gc][GB] | [EA]3 [^CE]2 [CE] | [DF]>[DE]D [Fc]>[GB][FA] | [GB]3- [GB]2 D | %5
w: 1.~I|found such a won- der- ful|Sav- ior In|Je- sus, my Lord and my|king! * Un-|
w: 2.~Sur-|pass- ing the love that a|mo- ther May|have for the child of her|care; * The|
w: 3.~The|plea- sures the world could af-|ford me Are|naught to com- pare with His|joy; * The|
w: 4.~When|sor- rows and pain are my|por- tion, When|tears of be- reave- ment must|fall, * My|
w: 5.~When|temp- ests a- round me are|sweep- ing, My|pi- lot and guide He will|be; * And|
 [GB]>[G^A][GB] [Gd]>[Gc][GB] | [EA]3 [Ge]2 [Ge] | [Gd]>[Gc][GB] [FA][DG][DF] | [DG]3- [DG]2 z || %9
w: dy- ing and true His de-|vo- tion; My|heart shall his glad prais- es|sing. *|
w: love of a sis- ter or|bro- ther With|His we can nev- er com-|pare. *|
w: rap- ture and peace that He|gives me, Earth’s|sor- rows can nev- er de-|stroy. *|
w: Sav- ior, my friend, my com-|pan- ion, Will|com- fort and keep through it|all. *|
w: safe is my soul in His|keep- ing, My|might- y de- liv- ’rer is|He. *|
"^Refrain" [Gd]>[Ge][Gd] [GB]>[Gc][GB] | [EA]>[EB][EA] E3 | [FA]>[FB][FA] D2 [Dc] | [DB]3 [Gd]3 | %13
w: ||||
w: ||||
w: Oh, what a won- der- ful|Sav- ior is He!|Con- stant and true is|Je- sus.|
w: ||||
w: ||||
 [Gd]>[Ge][Gd] [GB]>[Gc][GB] | [EA]>[EB][EA] E2 E | [DF]>[DE]D [Fc]>[FB][FA] | G3- G2 |] %17
w: ||||
w: ||||
w: More than I fan- cied He|ev- er could be Is|Je- sus, my won- der- ful|friend. *|
w: ||||
w: ||||
V:2
 D | x6 | x6 | x2 D x3 | x5 D | x6 | x6 | x6 | x6 || x6 | x3 E3 | x3 D2 x | x6 | x6 | x3 E2 E | %15
 x2 D x3 | G3- G2 |] %17
V:3
 [G,B,] | [G,D]>[G,^C][G,D] [G,B,]>[G,E][G,D] | [A,^C]3 A,2 A, | %3
 [D,C]>[D,C][D,C] [D,A,]>[D,D][D,D] | [G,D]3- [G,D]2 [G,B,] | [G,D]>[G,^C][G,D] [G,B,]>[G,E][G,E] | %6
 [C,C]3 [C,C]2 [^C,^A,] | [D,B,]>[D,E][D,D] [D,C][D,B,][D,A,] | [G,,B,]3- [G,,B,]2 z || %9
 [G,B,]>[G,C][G,B,] [G,D]>[G,E][G,D] | [A,^C]>[A,C][A,C] [A,C]3 | [D,C]>[D,C][D,C] [D,C]2 [F,A,] | %12
 [G,D]3 [G,B,]3 | [G,B,]>[G,C][G,B,] [G,D]>[G,E][G,D] | [A,^C]>[A,C][A,C] [A,C]2 [A,C] | %15
 [D,C]>[D,C][D,C] [D,E]>[D,D][D,C] | [G,B,]3- [G,B,]2 |] %17
V:4
 x | x6 | x3 A,2 A, | x6 | x6 | x6 | x6 | x6 | x6 || x6 | x6 | x6 | x6 | x6 | x6 | x6 | x5 |] %17

